X:1
T:Title
%%score { 1 | ( 2 3 ) }
L:1/8
M:6/4
K:Eb
V:1 treble nm="Grand Piano"
V:2 bass 
V:3 bass 
V:1
 z6 z4[Q:1/4=114] E2 | G4 FG A4 A2 | B4 B2 G4 G2 | [FA]4 [=EG][FA] [FA]2 [GB]2 [FA]2 | G6- G4 E2 | %5
 G4 FG A4 AA | B4 B2 G4 G2 | [DB]4 [DF][DF] [DB]4 [EF]2 |[M:5/4] [DB]2- [DB]2- [DB]6 | %9
[M:1/4] [DB]2 |[M:6/4] B4 GG G2 A2 B2 | c6- c4 c2 | c4 =Bc e2 d2 c2 | [GB]6- [GB]4 [GB][GB] | %14
 [Ge]4 [GB][GB] [GB]2 [FA]2 [EG]2 | [FA]2 [DF]4- [DF]4 [DB]2 | [Fd]4 [Ac][GB] [FA]2 [EG]2 [DF]2 | %17
[M:5/4] [B,E]2- [B,E]2- [B,E]6 |] %18
V:2
 z6 z4 [E,G,]2 | [E,B,E]4 [E,E]-[E,B,E] [E,CE]4 [E,CE]2 | [E,G,E]4 [E,G,E]2 [E,B,E]4 [E,B,E]2 | %3
 [B,,B,]4 [B,,B,][B,,B,] [B,,B,]4 [B,,B,]2 | [E,B,E]6- [E,B,E]4 [E,G,B,]2 | %5
 [E,B,E]4 [E,A,E][E,B,E] [E,CE]4 EE | [E,G,E]4 [E,G,E]2 [E,B,E]4 [E,B,E]2 | %7
 [B,,B,]4 [B,,B,][B,,B,] [F,B,]4 [F,=A,]2 |[M:5/4] [B,,F,]2- [B,,F,]2- [B,,F,]6 |[M:1/4] [B,,A,]2 | %10
[M:6/4] [E,G,E]4 [E,B,E][E,B,E] [E,B,E]2 [F,B,D]2[K:treble] [G,B,E]2 | [A,E]6- [A,E]4 [A,EA]2 | %12
 [A,EA]4 [A,DA][A,EA] [A,CA]2 [A,DA]2 [A,EA]2 | [E,E]6- [E,E]4 [E,E][E,E] | %14
 [E,B,]4 [E,E][E,E] [E,E]2 [E,B,]2 [E,B,]2 | [B,,B,]2 [B,,B,]4- [B,,B,]4 [B,,F,]2 | %16
 [B,,B,]4 [B,,B,][B,,B,] [B,,B,]2 [B,,B,]2 [B,,A,]2 |[M:5/4] [E,G,]2- [E,G,]2- [E,G,]6 |] %18
V:3
 x12 | z4 .A,2 z6 | x12 | x12 | x12 | z6 z4 [E,C]2 | x12 | x12 |[M:5/4] x10 |[M:1/4] x2 | %10
[M:6/4] x10[K:treble] x2 | x12 | x12 | x12 | x12 | x12 | x12 |[M:5/4] x10 |] %18

